X:1
T:Title
%%score 1 2 3 4
L:1/8
M:4/2
K:C
V:1 treble nm="Part_1"
V:2 treble-8 nm="Part_2"
V:3 treble-8 nm="Part_3"
V:4 bass nm="Part_4"
V:1
 z16 | z16 | E8 (F8 | E8) (D8 | E8) z4 C4- | C2 D2 E2 F2 G4 A4- | A2 G2 G8 F4 | G16 | E6 D2 E4 F4 | %9
 G4 E8 D4 | E16 || z16 | E8 (F8 | E8) D8 | (G8 A8) | G8 A8 | B8 B4 (3:2:1c6- | (3:2:2c2 B4 B8 A4 | %18
 B16 | z8 B8 | c8 A4 A4- | A4 G4 A8 | B8 c8 | A8 G8 | E8 F4 G4- | G2 F2 E8 D4 | E16 | z8 E8 | %28
 D8 E8 | D8 C8 | z16 | z8 C8 | E8 (G8 | A8) G8 | z4 B4 c4 d4- | d2 c2 B2 A2 B4 A4- | A2 G2 G8 ^F4 | %37
 G16 | z8 G8 | F8 (G8 | A8) G4 G4- | G4 F2 E2 F8 | E16 | z4 G4 A4 B4 | c4 A4 G8 | z16 | z16 | %47
 A8 E4 F4- | F4 E4 D8 | C8 z4 C4 | E6 F2 G4 A4- | A4 G4 E4 (3:2:1F6- | (3:2:2F2 E4 E8 D4 | E16 |] %54
V:2
 e8 c4 d4 | e8 A4 d4- | d4 ^c4 d8 | z8 z4 A4 | c6 d2 e8 | c8 z4 f4 | e2 d2 c2 B2 c8 | %7
 B4 e4 (3:2:2e8 d4 | c12 d4 | e4 c8 B4 | c16 || e8 (f8 | e8) d4 d4- | d4 c4 d8 | (e8 A8) | %15
 e8 z4 f4 | e4 d4 g8 | z4 g8 f4 | g8 z4 d4- | d4 c4 d8 | c4 A4 c8 | B8 z4 A4- | A4 G4 A8 | %23
 A8 E4 e4- | e2 d2 c2 B2 c4 d4 | c4 B8 A4 | B8 z4 c4- | c2 B2 A4 G8 | z4 G4 E6 F2 | G8 z8 | %30
 e8 e4 e4- | e2 d2 c2 B2 A8 | G4 E8 e4- | e4 d4 e8 | z4 e8 d4 | g6 f2 d4 f4 | d4 e4 d8 | %37
 B6 A2 B4 (3:2:1c6- | (3:2:2c2 B4 A8 G4 | (A8 B8) | A6 B2 c2 d2 e4- | e2 d2 c8 B4 | c4 B4 G4 g4- | %43
 g2 f2 e2 d2 f4 e4- | e4 d4 e8 | z8 z4 e4 | f4 d4 e4 c4 | d4 f4 e4 (3:2:1d6- | (3:2:2d2 c4 c8 B4 | %49
 c8 z4 g4- | g2 f2 e2 d2 e4 f4- | f4 e8 d4- | d2 c2 c8 B4 | c16 |] %54
V:3
 z16 | E8 (F8 | E8) (D8 | E8) z8 | z4 C6 D2 E4 | F4 G8 F4 | (G8 A8) | G8 z4 C4- | %8
 C2 D2 E2 F2 G4 A4 | E4 G4 F8 | E16 || z16 | z16 | E8 (F8 | E8) D8 | G4 G8 F4 | %16
 G2 A2 B2 c2 d4 e4- | e2 d2 c2 B2 c8 | B4 d6 c2 B2 A2 | B4 A8 G4 | A16 | z4 E4 F4 E4- | %22
 E4 D4 E4 e4 | d4 c8 B4 | c8 z8 | z16 | z4 G8 A4 | G4 c8 B2 A2 | B4 (3:2:2d8 c4 c4- | c4 B4 c8 | %30
 z4 G8 G4 | E4 G4 F8 | E4 c6 B2 B4- | B4 A4 B8- | B8 z4 G4- | G2 A2 B2 c2 d6 c2 | B4 c4 A8 | %37
 G8 z4 e4- | e2 d2 d8 c4 | d8 z8 | z16 | z8 d8 | G6 A2 B4 c4- | c4 B4 A4 G4 | F8 E4 G4 | A4 B4 c8 | %46
 A8 G8 | z16 | z8 G8 | E4 F8 E4 | C8 z4 c4- | c4 B4 c4 A4- | A2 G2 E4 F8 | E16 |] %54
V:4
 E,8 (F,8 | E,8) (D,8 | A,,8) z4 D,4- | D,4 C,4 D,8 | A,,16 | z4 E,8 D,4 | E,8 z8 | %7
 z4 C,6 D,2 E,2 F,2 | G,6 F,2 E,4 D,4 | (C,8 D,8) | A,,16 || E,8 (D,8 | C,8) D,8 | (A,,8 D,8) | %14
 z8 (F,8 | E,8) D,8 | z4 G,8 E,4 | A,4 G,4 A,8 | G,4 G,,6 A,,2 B,,2 C,2 | D,4 A,,4 B,,8 | A,,16 | %21
 z4 E,4 D,4 C,4 | B,,8 A,,4 C,4 | D,4 A,,4 E,8 | z4 A,8 G,4 | E,4 G,4 F,8 | (E,8 C,8) | C,16 | %28
 z16 | G,,8 A,,8 | C,12 C,4 | C,8 z8 | C,8 E,8 | F,8 E,4 G,4- | G,2 F,2 E,2 D,2 C,4 B,,4 | %35
 G,,4 G,8 F,4 | G,4 C,4 D,8 | z4 G,6 F,2 E,2 D,2 | C,4 D,4 E,8 | D,8 z4 G,4 | F,6 E,D, E,4 C,4- | %41
 C,2 D,2 E,4 D,8 | C,4 G,8 E,4 | E,8 z8 | z8 z4 E,4 | F,4 D,4 E,4 C,4 | D,4 F,4 E,8 | D,8 C,4 D,4 | %48
 A,,8 z8 | z4 A,8 G,4 | E,2 F,2 G,2 A,2 G,4 F,4- | F,4 G,4 C,4 D,4 | A,,4 C,4 D,8 | A,,16 |] %54

